X:1
T:Title
%%score 1 2
L:1/8
Q:1/4=84
M:4/8
K:Bb
V:1 treble nm="Grand Piano, Soprano"
V:2 bass nm="Choir Pad, Bass"
V:1
 [DF][DB][DB][DB] | F[EG][EG][EG] | [=EB][_EA][EG][CF] | [CE] [_DG]2 [=DF] | [DF][DB][DB][DB] | %5
w: By~Thomas~Martin~Towne * * *|||||
 F[EG][EG][EG] | [Ge][Fd][Ec][DB] | [CA] [Ec]2 [DB] | z [DF][DB][DB]- | [DB]/[FA]/[FA] [EG]2- | %10
w: |||||
 [EG][=EG][Ec][Ec]- | [Ec]/[GB]/[GB] [FA]2- | [FA][DB]/[DB]/[DB]/[DB]/[DB] | [Fd][EG][EG][GB] | %14
w: ||||
 [Ge][Fd][Ec][DB] | [CA] [Ec]2 [DB]- | [DB]4- | [DB] z z2 |] %18
w: ||||
V:2
 [B,,B,][B,,F,][B,,F,][B,,F,] | [F,B,][E,B,][E,B,][E,B,] | [C,C][F,C][F,B,][F,A,] | %3
 [F,A,] [B,,B,]2 [B,,B,] | [B,,B,][B,,F,][B,,F,][B,,F,] | [D,B,][E,B,][E,B,][E,B,] | %6
 [E,B,][F,B,][F,A,][F,B,] | F, F,2 [B,,F,] | z [B,,B,][B,,F,][B,,F,]- | %9
 [B,,F,]/[D,B,]/[E,B,] [E,B,]2- | [E,B,][C,C][C,G,][C,G,]- | [C,G,]/[C,C]/[F,C] [F,C]2- | %12
 [F,C][B,,B,]/[B,,F,]/[B,,F,]/[B,,F,]/[B,,F,] | [B,,B,][E,B,][E,B,][E,B,] | %14
 [E,B,][F,B,][F,A,][F,B,] | F, F,2 [B,,F,]- | [B,,F,]4- | [B,,F,] z z2 |] %18

